X:432
T:An Alarh
Z:Jack Campin, http://www.campin.me.uk/
F:Jack Campin's Nine-Note Tunebook
% last edit 15-03-2013
N:Breton ballad tune Morris Blythman borrowed for "The Twa Corbies".
N:This is the way Blythman himself sang it, not the way it's
N:most often done nowadays, with a regular rock-and-roll beat.
S:Kendal'ch: "Kanomp Uhel", Cooperative Breizh, La Baule, 1977
M:2/4
L:1/8
Q:1/4=84
K:GMin
  D|       G  A      B  z | G2 F      F   |[M:2/8] G
w:Eun      a- larc'h eun,   a- larc'h tre-         mor
  D|[M:2/4]G  A      B  z | G2 F      F   |[M:2/8] G
w:Eun      a- larc'h eun,   a- larc'h tre-         mor
  B |[M:2/4]B    c    d>    d   |c>   B  (B2 | A4) ||
w:War       lein tour moal  kas- tell Ar- vor_!
   G   A    B     A/   G/ | G    F/   F/  G z |HD2 z2|
w:Din! din! daon! d'an em-  gann d'an em- gann, o!
  G    A    B     A/   G/ | G    F   HG2     |]
w:Din! din- daon! d'an em-  gann ez   an!

